X: 37651
T: Snow Shoer's
R: reel
M: 4/4
K: Cdorian
|:fe|d2Bd c2Ac|BcBA GABG|F2Bc B2fg|fdBd c2fe|
d2Bd c2Ac|BcBA GABG|F2fg fdBd|c2 B2 B2:|
|:D2|G3A BABc|dcde dcBG|F3G AGAB|cBcd cAGF|
G3A BABc|dcde dcBc|d3e dcBA|B2 A2 G2:|

